media/copy.svg

<svg width="18" height="22" viewBox="0 0 18 22" xmlns="http://www.w3.org/2000/svg"><path d="M16 2h-4.18c-.42-1.16-1.52-2-2.82-2-1.3 0-2.4.84-2.82 2h-4.18c-1.1 0-2 .9-2 2v16c0 1.1.9 2 2 2h14c1.1 0 2-.9 2-2v-16c0-1.1-.9-2-2-2zm-7 0c.55 0 1 .45 1 1s-.45 1-1 1-1-.45-1-1 .45-1 1-1zm7 18h-14v-16h2v3h10v-3h2v16z" fill="#4A4A4A" fill-rule="evenodd"/></svg>

<svg width="18" height="22" viewBox="0 0 18 22" xmlns="http://www.w3.org/2000/svg"><path d="M16 2h-4.18C11.4.84 10.3 0 9 0 7.7 0 6.6.84 6.18 2H2C.9 2 0 2.9 0 4v16c0 1.1.9 2 2 2h14c1.1 0 2-.9 2-2V4c0-1.1-.9-2-2-2zM9 2c.55 0 1 .45 1 1s-.45 1-1 1-1-.45-1-1 .45-1 1-1zm7 18H2V4h2v3h10V4h2v16z" fill="#4A4A4A" fill-rule="evenodd"/></svg>
